X: 36996
T: Sidlaw Hills
R: strathspey
M: 4/4
K: Amajor
e2|:a>b a>f e<c B>A|A<c B>A F2E2|A2A2 a2e>d|c2A2 B3e|
a>b a>f e<c B>A|A<c B>A F2E2|A2A2 a2e>c|1 B2A2 A2e2:|2 B2A2 A2c<e||
|:f>e c<e a>e c<e|f>e c<e f2e2|a>e c<e f>e c<e|f<a e>c B2e2|
a>b a>f e<c B>A|A<c B>A F2E2|A2A2 a2e>c|1 B2A2 A2c<e:|2 B2A2 A2||

